!! 00000] TT[WS
!!!OTL: Chouni lianghui
!!!ARE: Asia, China, Shanxi Hequ
!! Ethnic Group: Han
!! WI, 128
!!!SCT: J0153
!!!YEM: Copyright 1995, estate of Helmut Schaffrath.
**kern
*ICvox
*Ivox
*M2/4
*k[b-]
*F:
{8.ff
16dd
8cc
8ff
=1
8cc
8g
8f
8c
=2
8.f
16g
8f
8c
=3
16f
16f
16f
16g
8f
8c}
=4
{8f
16f
16g
8f
8c
=5
16f
16f
16f
16g
8f
8c
=6
8.f
16g
8cc
8cc
=7
2c}
=8
{8.ff
16dd
8cc
8ff
=9
8cc
8g
8f
8c
=10
8f
16f
16g
8f
8c
=11
8cc
16g
16g
8f
8c}
=12
{16f
16f
16f
16g
8f
8c
=13
16cc
16cc
16cc
16g
8f
8c
=14
8f
8g
[4cc
=15
2cc]
=16
8ff
4cc
8b-
=17
8g
4.ff}
=18
{8.ff
16dd
8cc
8ff
=19
8cc
8g
8f
8c
=20
8f
16f
16g
8f
8c
=21
16f
16f
16f
16g
8f
8c}
=22
{8f
16f
16g
8f
8c
=23
16f
16f
16f
16g
8f
8c
=24
8.f
16g
8cc
8cc
=25
2c}
=26
{8.ff
16dd
8cc
8ff
=27
8cc
8g
8f
8c
=28
8.f
16g
8f
8c
=29
8.cc
16g
8f
8c}
=30
{8.f
16g
8f
8c
=31
8.cc
16g
8f
8c
=32
8.f
16g
8f
8c
=33
16a
8cc
16g
8f
8c}
=34
{8.f
16g
8f
8c
=35
8.b-
16g
8f
8c
=36
8f
8g
[4cc
=37
2cc]
=38
8ff
4cc
8b-
=39
8g
4.f}
==
!!!AGN: Xiaodiao. Qingge
!!!ONB: ESAC (Essen Associative Code) Database: CHINA
!!!AMT: simple duple
!!!AIN: vox
!!!EED: Helmut Schaffrath
!!!EEV: 1.0
*-
!!!ONB: Tied note syntax fixed by Craig Sapp, 2004/05/03/
